X: 47
M: 3/4
L: 1/8
K: Gm
V: 1
{A}B3ABG | d2g2ab | {g}^f3=ed2 | _e2d2c2 |\
d2B2f2 | b3ag2 | a2bagf |
{f}=e2A2d^c |\
d=e{f}Te3d |[1 d4 :|[2 d3 |: bab |\
{g}^f3=efd | gagf_ef | d2edcB | c2A2c2 |
^f3dgf | ga{b}Ta3g |[1 g3 :|[2 d4 |]
M: C|
d2 |\
de |\
f2ed e2dc | d2cd B2d2 | cdBc ABGB | AG^F=E D_ede |\
f2ed e2dc | d2cd B2b2 | B2cA BGA^F | G6 |]
M: 6/8
{c}BAG d2g | {g}^f=ed g2a | bag dcd | {c}B2A G2d |\
{c}BAG d2g | {g}^f=ed g2a | bag dg^f | g3 |]
b2=f |\
dcB F2f | dcB F2f | fed cBA | {c}BAB d2g |\
edc =B2g | edc =B2g | gfe dc=B | c=Bc edc |
ded dcB | cdc cBA | BAG d2G | ^F=ED d=e^f |\
gab aga | bag ^fga | dcB AG^F | G3 |]
V: 2 clef=bass middle=d
z2 |\
g2f2=e2 | f2gf=ed | a3gf=e | fga2A2 |[1 d4 :|[2 d3 |: z2z |
d6 | G4A2 | B2cBAG | F2f2e2 | d2B2e2 | d2d'2c'2 |
b2f2F2 | B4d2 | e2c2e2 | d2c2BA | Bcd2D2 |[1 G3 :|[2 G4 |]
M: C|
z2 |\
g4 G2A2 | B6 b2 | a2g2 d'2d2 | g4 G4 | g4 G2A2 |
"[p.2]"\
a2g2 ^f2g2 | d4 z4 | b4 f4 | B6 d2 | e2c2 d2D2 | G6 |]
M: 6/8
z2z |\
b3 a3 | b3 f3 | B3 =B3 | c3 G3 | c3 G3 |
c3 g3 | c'3 a3 | b3 g3 | a3 ^f3 | g3 B2c |
d3 B2A | G3 d3 | g3 d3 | B2c d2D | G3 |]


